src/assets/images/comprehensive/insurance-plan/hospital-plan.svg

<?xml version="1.0" encoding="UTF-8"?>
<svg width="29px" height="27px" viewBox="0 0 29 27" version="1.1" xmlns="http://www.w3.org/2000/svg" xmlns:xlink="http://www.w3.org/1999/xlink">
    <!-- Generator: Sketch 59 (86127) - https://sketch.com -->
    <title>Icon/Insurance/Hospital Bills</title>
    <desc>Created with Sketch.</desc>
    <g id="Icon/Insurance/Hospital-Bills" stroke="none" stroke-width="1" fill="none" fill-rule="evenodd">
        <g id="Group-6" fill="#00A7A7" fill-rule="nonzero">
            <g id="pharmacy">
                <path d="M29.802597,10.0799617 L15.9120517,0.275744681 C15.4069615,-0.0919148936 14.901812,-0.0919148936 14.3967217,0.275744681 L0.506176407,10.0799617 C-0.504063364,10.6927468 0.127343892,12.2859191 1.26384144,12.2859191 L3.78941127,12.2859191 L3.78941127,25.7667894 C3.78941127,26.5021085 4.29450156,26.9923021 5.05216659,26.9923021 L25.2565477,26.9923021 C26.0142127,26.9923021 26.519303,26.5021085 26.519303,25.7667894 L26.519303,12.2859191 L29.0448728,12.2859191 C30.1814295,12.2859191 30.8127776,10.6927468 29.802597,10.0799617 Z M15.1543867,24.5412766 C10.9872291,24.5412766 7.57773642,21.2323404 7.57773642,17.1880851 C7.57773642,13.1438298 10.9872291,9.83489362 15.1543867,9.83489362 C19.3215444,9.83489362 22.731037,13.1438298 22.731037,17.1880851 C22.731037,21.2323404 19.3215444,24.5412766 15.1543867,24.5412766 Z" id="Shape"></path>
                <polygon id="Shape" points="16.8625982 15.682634 16.8625982 12.6 13.6862848 12.6 13.6862848 15.682634 10.5099715 15.682634 10.5099715 18.7652681 13.6862848 18.7652681 13.6862848 21.8479021 16.8625982 21.8479021 16.8625982 18.7652681 20.0389115 18.7652681 20.0389115 15.682634"></polygon>
            </g>
        </g>
    </g>
</svg>

<svg xmlns="http://www.w3.org/2000/svg" width="31" height="27" viewBox="0 0 31 27">
    <g fill="#00A7A7" fill-rule="nonzero">
        <path d="M29.803 10.08L15.913.276c-.506-.368-1.011-.368-1.516 0L.507 10.08c-1.011.613-.38 2.206.757 2.206h2.525v13.48c0 .736.506 1.226 1.263 1.226h20.205c.757 0 1.262-.49 1.262-1.225V12.286h2.526c1.136 0 1.768-1.593.758-2.206zM15.154 24.541c-4.167 0-7.576-3.309-7.576-7.353s3.41-7.353 7.576-7.353c4.168 0 7.577 3.309 7.577 7.353s-3.41 7.353-7.577 7.353z"/>
        <path d="M16.863 15.683V12.6h-3.177v3.083H10.51v3.082h3.176v3.083h3.177v-3.083h3.176v-3.082z"/>
    </g>
</svg>
